X:435
T: It's an Ill Wind...
T: Is Olc an Ghaoth...
S: B.Breathnach:"Ceol Rince na hEireann" IV/14
Z: B.Black
N: No repeats
L: 1/8
M: 6/8
R: jig
K: G
D|GAB cBc|dBG FED|GB(3d/c/B/ cAF|GAG G2D|
GAB cd(3e/f/g/|dBG FED|GB(3d/c/B/ cAF|GAG G2 ||
f|geg fdf|ecA dBG|geg fed|ecA A2f|
gfe agf|gfe dBF|GA(3d/c/B/ cAF|GAG G2 ||
